src/assets/outline/Milk.svg

<svg width="24" height="24" viewBox="0 0 24 24"  xmlns="http://www.w3.org/2000/svg">
<path d="M15 22.7505H9C6.93 22.7505 5.25 21.0705 5.25 19.0005V13.9805C5.25 13.7805 5.32997 13.5905 5.46997 13.4505C5.60997 13.3105 5.8 13.2305 6 13.2305L9.89001 13.2505C10.73 13.2505 11.57 13.4505 12.33 13.8305C12.89 14.1105 13.49 14.2505 14.12 14.2505H18C18.41 14.2505 18.75 14.5905 18.75 15.0005V19.0005C18.75 21.0705 17.07 22.7505 15 22.7505ZM6.75 14.7305V19.0005C6.75 20.2405 7.76 21.2505 9 21.2505H15C16.24 21.2505 17.25 20.2405 17.25 19.0005V15.7505H14.12C13.26 15.7505 12.43 15.5605 11.66 15.1705C11.1 14.8905 10.5 14.7505 9.89001 14.7505L6.75 14.7305Z" />
<path d="M18 15.75H14.12C13.26 15.75 12.43 15.56 11.66 15.17C11.1 14.89 10.5 14.75 9.89001 14.75L6 14.73C5.59 14.73 5.25 14.39 5.25 13.98V10.83C5.25 10.17 5.59 9.35 6.06 8.88L8.17999 6.75999C8.21999 6.71999 8.25 6.65 8.25 6.59V5C8.25 4.59 8.59 4.25 9 4.25H15C15.41 4.25 15.75 4.59 15.75 5V6.59C15.75 6.65 15.78 6.71999 15.82 6.75999L17.94 8.88C18.41 9.35 18.75 10.17 18.75 10.83V15C18.75 15.41 18.41 15.75 18 15.75ZM6.75 13.23L9.89001 13.25C10.73 13.25 11.57 13.45 12.33 13.83C12.89 14.11 13.49 14.25 14.12 14.25H17.25V10.83C17.25 10.57 17.07 10.13 16.88 9.94L14.76 7.82001C14.44 7.50001 14.25 7.05 14.25 6.59V5.75H9.75V6.59C9.75 7.05 9.55999 7.50001 9.23999 7.82001L7.12 9.94C6.93 10.13 6.75 10.57 6.75 10.83V13.23Z" />
<path d="M18 16.75C17.59 16.75 17.25 16.41 17.25 16V15C17.25 14.59 17.59 14.25 18 14.25C18.41 14.25 18.75 14.59 18.75 15V16C18.75 16.41 18.41 16.75 18 16.75Z" />
<path d="M6 15.7305C5.59 15.7305 5.25 15.3905 5.25 14.9805V13.9805C5.25 13.5705 5.59 13.2305 6 13.2305C6.41 13.2305 6.75 13.5705 6.75 13.9805V14.9805C6.75 15.3905 6.41 15.7305 6 15.7305Z" />
<path d="M14.5 5.75H9.5C8.26 5.75 7.25 4.74 7.25 3.5C7.25 2.26 8.26 1.25 9.5 1.25H14.5C15.74 1.25 16.75 2.26 16.75 3.5C16.75 4.74 15.74 5.75 14.5 5.75ZM9.5 2.75C9.09 2.75 8.75 3.09 8.75 3.5C8.75 3.91 9.09 4.25 9.5 4.25H14.5C14.91 4.25 15.25 3.91 15.25 3.5C15.25 3.09 14.91 2.75 14.5 2.75H9.5Z" />
</svg>

<?xml version="1.0" encoding="UTF-8"?>
<svg width="24" height="24" viewBox="0 0 24 24" xmlns="http://www.w3.org/2000/svg">
 <path d="m15 22.75h-6c-2.07 0-3.75-1.68-3.75-3.75v-5.02c0-0.2 0.07997-0.39 0.21997-0.53s0.33003-0.22 0.53003-0.22l3.89 0.02c0.83999 0 1.68 0.2 2.44 0.58 0.56 0.28 1.16 0.42 1.79 0.42h3.88c0.41 0 0.75 0.34 0.75 0.75v4c0 2.07-1.68 3.75-3.75 3.75zm-8.25-8.02v4.27c0 1.24 1.01 2.25 2.25 2.25h6c1.24 0 2.25-1.01 2.25-2.25v-3.25h-3.13c-0.86 0-1.69-0.19-2.46-0.58-0.56-0.28-1.16-0.42-1.77-0.42l-3.14-0.02z"/>
 <path d="m18 15.75h-3.88c-0.86 0-1.69-0.19-2.46-0.58-0.56-0.28-1.16-0.42-1.77-0.42l-3.89-0.02c-0.41 0-0.75-0.34-0.75-0.75v-3.15c0-0.66 0.34-1.48 0.81-1.95l2.12-2.12c0.04-0.04 0.07001-0.10999 0.07001-0.16999v-1.59c0-0.41 0.34-0.75 0.75-0.75h6c0.41 0 0.75 0.34 0.75 0.75v1.59c0 0.06 0.03 0.12999 0.07 0.16999l2.12 2.12c0.47 0.47 0.81 1.29 0.81 1.95v4.17c0 0.41-0.34 0.75-0.75 0.75zm-11.25-2.52 3.14 0.02c0.83999 0 1.68 0.2 2.44 0.58 0.56 0.28 1.16 0.42 1.79 0.42h3.13v-3.42c0-0.26-0.18-0.7-0.37-0.89l-2.12-2.12c-0.32-0.32-0.51-0.77001-0.51-1.23v-0.84h-4.5v0.84c0 0.46-0.19001 0.91001-0.51001 1.23l-2.12 2.12c-0.19 0.19-0.37 0.63-0.37 0.89v2.4z"/>
 <path d="m18 16.75c-0.41 0-0.75-0.34-0.75-0.75v-1c0-0.41 0.34-0.75 0.75-0.75s0.75 0.34 0.75 0.75v1c0 0.41-0.34 0.75-0.75 0.75z"/>
 <path d="m6 15.73c-0.41 0-0.75-0.34-0.75-0.75v-1c0-0.41 0.34-0.75 0.75-0.75s0.75 0.34 0.75 0.75v1c0 0.41-0.34 0.75-0.75 0.75z"/>
 <path d="m14.5 5.75h-5c-1.24 0-2.25-1.01-2.25-2.25s1.01-2.25 2.25-2.25h5c1.24 0 2.25 1.01 2.25 2.25s-1.01 2.25-2.25 2.25zm-5-3c-0.41 0-0.75 0.34-0.75 0.75s0.34 0.75 0.75 0.75h5c0.41 0 0.75-0.34 0.75-0.75s-0.34-0.75-0.75-0.75h-5z"/>
</svg>
